X:34
T:Three Hornpipes #1
R:hornpipe
C:Traditional
D:"Chasing the bear" by Jon Hicks
Z:Transcribed by Lionel Gueganton
L:1/8
M:4/4
K:G
|: [G2D2G,2] BG AB cA | Bc df gf dc    | B2 Bd cB AG      | EF AF DE F/E/D
|   G2 BG AB cA       | Bc [dG]f gf dc | B2 Bd cB AG      |1 EF AF G2 D/E/F     
                                                         :|2 D/E/F AF [GG]d d/e/f 
| g2 ga gf de         | e/g/g ga gf de | e/f/f fg af gf   | dB cA ^A/=A/G FA      |
  [G2D2G,2] BG AB cA  | Bc [dG]f gf dc | B2 Bd cB AG      | D/E/F AF [GG]d d/e/f  |
  g2 ga gf de         | e/g/g ga gf de | fg da dd bd      | dc' dd bg f2          |
  G2 BG AB cA         | Bc [dG]f gf dc | B2 Bd cB AG      | D/E/F AF [G2G2] D/E/F |
  "A Part - Variation"
  [G2D2G,2] BG AB cA  | Bc df gf dc    | B^A =AB ^A=A B^A | AB ^A=A GF EF
| G2 BG AB cA         | Bc [dG]f gf dc | B2 Bd cB AG      | D/E/F AF [G4G4]

